X: 745
T: Old Joe Clark
B: jims roots
M:4/4
L:1/8
Q: 1/4=100
K:A
V:1 
%Z:Nigel Gatherer
|:"A"e2ef g2f2|efed cAcd|ecef gfgf|e2 ef e2 cd|
"A"e2ef g2 (3fgf|efed cBAB|cBAc "E"BAGB|"A"(A2 A)A A4  :|]
"A"E2|:A2 AB cBcd|efed cB A2|A2 AB cB A2|"G **"([B4=G4][B4G4]) |
"A"A2 AB ABcd|efed cBAB|cBAc "E"BAGB|[1"A"A4-A2 E2:|[2 "A"A2 AB A4|]
"** option"=GFGA BA G2|
% abcbook-tune_id 6298c279c6d13d96a8999ff5


% abcbook-boost 0
% abcbook-tablature 
% abcbook-transpose 
% abcbook-lastupdated 1654178425935
% abcbook-soundfonts 
% abcbook-repeats 1


